digital/Imbassy-X-Files/65ef0811cc67439994568a45/65ef0811cc67439994569012_inc-500-seeklogo.com 1.svg

<svg fill="none" height="48" viewBox="0 0 56 48" width="56" xmlns="http://www.w3.org/2000/svg" xmlns:xlink="http://www.w3.org/1999/xlink"><clipPath id="a"><path d="m0 0h56v48h-56z"/></clipPath><g clip-path="url(#a)" fill="#fff"><path d="m36.6823 25.699c-1.5593-2.5179-4.1321-4.3963-8.2252-4.4363-3.4304-.04-6.0032 1.159-7.7963 3.1574l-.2729 2.6777h-1.5203c-.5457 1.1591-.9745 2.438-1.2084 3.7969 2.4558 1.4388 4.0151 3.9567 4.0151 7.0741 0 2.0383-.6627 4.0766-1.8321 5.6752 1.8711 2.5179 4.6778 3.8768 7.9912 3.8768 4.0931 0 6.8608-1.8385 8.576-4.4363-1.3254-2.0783-2.105-4.8759-2.105-8.2731-.039-3.4371.7406-6.6744 2.3779-9.1124zm-8.654 16.7061c-1.5982 0-2.6897-1.199-3.1575-3.1574-.2729-1.3189-.3119-2.7177-.3119-4.0766 0-2.4779.156-5.7552 1.0525-7.3539.6627-1.119 1.7152-1.5587 2.5339-1.5587 1.7152 0 2.6117 1.4388 2.9626 2.9975.3508 1.5587.4288 4.3164.4288 5.4355 0 3.597-.5068 7.7136-3.5084 7.7136z"/><path d="m45.4529 21.3405c-4.0541-.0399-6.9388 1.6387-8.7319 4.3164 1.5982 2.5579 2.105 5.7552 2.105 8.3531 0 3.1174-.7017 6.4746-2.4559 9.0724 1.8711 2.9176 4.8337 4.5163 8.4201 4.5163 8.1861 0 11.0318-7.234 11.0318-13.5088-.039-5.1157-2.066-12.6295-10.3691-12.7494zm-.4288 21.1424c-1.5983 0-2.6898-1.199-3.1576-3.1573-.2728-1.3189-.3118-2.7178-.3118-4.0766 0-2.478.1559-5.7553 1.0525-7.3539.6627-1.1191 1.7152-1.5587 2.5338-1.5587 1.7152 0 2.6118 1.4388 2.9626 2.9975s.4288 4.3164.4288 5.4355c0 3.597-.5068 7.7135-3.5083 7.7135z"/><path d="m36.6815 25.6992c-1.6372 2.438-2.4169 5.6753-2.4169 9.1924 0 3.3971.7797 6.1548 2.1051 8.2731 1.7152-2.5979 2.4558-5.9551 2.4558-9.0725-.039-2.6777-.5457-5.8751-2.144-8.393z"/><path d="m17.6197 30.8928c-1.4813-.8793-3.3134-1.3589-5.3405-1.3589-1.3253 0-2.92359.2398-4.01508.6794-.23389.1199-.50676.2398-.74065.3997l.35083-3.5571h10.9539c.4677-.9991 1.0915-1.9184 1.7931-2.6777l.2729-2.5579h-18.20446l-1.36436 13.6287 6.12013.7593c.42879-.6394 1.01352-1.5986 3.00159-1.5986 2.5338 0 3.7422 1.6386 3.7422 3.9167 0 1.9584-1.0525 3.9167-3.6253 3.9167-1.48126 0-2.65071-.6794-3.07951-2.1182-.19491-.5995-.19491-1.199-.19491-1.8385l-7.28958.7994c.389817 1.9184.740652 3.6769 2.3389 5.3555 2.7677 2.8776 6.86078 2.8776 8.1862 2.8776 2.066 0 5.8862-.1998 8.5759-2.9975.2729-.2798.5068-.5595.7017-.8393-1.5982-2.1582-2.5338-5.1557-2.5338-8.8726 0-1.3589.1169-2.6778.3508-3.9167z"/><path d="m20.3484 27.0957.2729-2.6777c-.7017.7993-1.3254 1.6786-1.7932 2.6777z"/><path d="m17.6194 30.8945c-.2339 1.239-.3508 2.5179-.3508 3.8768 0 3.7169.9355 6.7144 2.5338 8.8726 1.1694-1.5987 1.8321-3.637 1.8321-5.6753 0-3.1174-1.5593-5.6353-4.0151-7.0741z"/><path d="m.740234 19.3033v-4.1965h2.416866v-10.43131h-2.416866v-4.476271h12.941966v4.476271h-2.4169v10.43131h2.4169v4.1965z"/><path d="m25.4156 19.3036v-4.1965h1.8711v-4.3564c0-1.31888-.8965-1.91838-2.105-1.91838-1.4813 0-2.6118 1.11907-2.6118 2.63778v3.597h1.9491v4.1566h-10.1352v-4.1166h1.8321v-6.27478h-1.8321v-4.15654h7.9912v2.8776c.117-.1199.2729-.27976.3509-.39966 1.4813-1.71857 3.1185-2.31807 5.3405-2.31807 3.0795 0 5.6133 1.27893 5.6133 4.796v5.51545h1.6373v4.1565z"/><path d="m51.4555 10.8325-5.4574.5995c-.078-1.55871-.3899-3.19734-2.222-3.19734-2.3389 0-2.5338 1.99834-2.5338 3.95674v.0399c0 1.9184.1949 3.9567 2.5338 3.9567 1.2474 0 2.3389-.7194 2.3389-2.2781h.1949 5.2625l-.1169.4796c-.8966 4.5562-4.9117 5.2756-7.7963 5.2756-4.5219 0-8.9658-2.2781-8.9658-7.4338 0-5.15568 4.4439-7.43378 8.9658-7.43378.0389-.03997 7.0946-.4796 7.7963 6.03498z"/><path d="m53.3663 19.345c1.2702 0 2.2999-1.0558 2.2999-2.3581s-1.0297-2.358-2.2999-2.358-2.2999 1.0557-2.2999 2.358 1.0297 2.3581 2.2999 2.3581z"/></g></svg>

<svg width="56" height="48" viewBox="0 0 56 48" fill="none" xmlns="http://www.w3.org/2000/svg">
<g clip-path="url(#clip0_1094_7526)">
<path d="M36.6823 25.699C35.123 23.1811 32.5502 21.3027 28.4571 21.2627C25.0267 21.2227 22.4539 22.4217 20.6608 24.4201L20.3879 27.0978H18.8676C18.3219 28.2569 17.8931 29.5358 17.6592 30.8947C20.115 32.3335 21.6743 34.8514 21.6743 37.9688C21.6743 40.0071 21.0116 42.0454 19.8422 43.644C21.7133 46.1619 24.52 47.5208 27.8334 47.5208C31.9265 47.5208 34.6942 45.6823 36.4094 43.0845C35.084 41.0062 34.3044 38.2086 34.3044 34.8114C34.2654 31.3743 35.045 28.137 36.6823 25.699ZM28.0283 42.4051C26.4301 42.4051 25.3386 41.2061 24.8708 39.2477C24.5979 37.9288 24.5589 36.53 24.5589 35.1711C24.5589 32.6932 24.7149 29.4159 25.6114 27.8172C26.2741 26.6982 27.3266 26.2585 28.1453 26.2585C29.8605 26.2585 30.757 27.6973 31.1079 29.256C31.4587 30.8147 31.5367 33.5724 31.5367 34.6915C31.5367 38.2885 31.0299 42.4051 28.0283 42.4051Z" fill="white"/>
<path d="M45.4529 21.3405C41.3988 21.3006 38.5141 22.9792 36.721 25.6569C38.3192 28.2148 38.826 31.4121 38.826 34.01C38.826 37.1274 38.1243 40.4846 36.3701 43.0824C38.2412 46 41.2038 47.5987 44.7902 47.5987C52.9763 47.5987 55.822 40.3647 55.822 34.0899C55.783 28.9742 53.756 21.4604 45.4529 21.3405ZM45.0241 42.4829C43.4258 42.4829 42.3343 41.2839 41.8665 39.3256C41.5937 38.0067 41.5547 36.6078 41.5547 35.249C41.5547 32.771 41.7106 29.4937 42.6072 27.8951C43.2699 26.776 44.3224 26.3364 45.141 26.3364C46.8562 26.3364 47.7528 27.7752 48.1036 29.3339C48.4544 30.8926 48.5324 33.6503 48.5324 34.7694C48.5324 38.3664 48.0256 42.4829 45.0241 42.4829Z" fill="white"/>
<path d="M36.6815 25.6992C35.0443 28.1372 34.2646 31.3745 34.2646 34.8916C34.2646 38.2887 35.0443 41.0464 36.3697 43.1647C38.0849 40.5668 38.8255 37.2096 38.8255 34.0922C38.7865 31.4145 38.2798 28.2171 36.6815 25.6992Z" fill="white"/>
<path d="M17.6197 30.8928C16.1384 30.0135 14.3063 29.5339 12.2792 29.5339C10.9539 29.5339 9.35561 29.7737 8.26412 30.2133C8.03023 30.3332 7.75736 30.4531 7.52347 30.613L7.8743 27.0559H18.8282C19.2959 26.0568 19.9197 25.1375 20.6213 24.3782L20.8942 21.8203H2.68974L1.32538 35.449L7.44551 36.2083C7.8743 35.5689 8.45903 34.6097 10.4471 34.6097C12.9809 34.6097 14.1893 36.2483 14.1893 38.5264C14.1893 40.4848 13.1368 42.4431 10.564 42.4431C9.08274 42.4431 7.91329 41.7637 7.48449 40.3249C7.28958 39.7254 7.28958 39.1259 7.28958 38.4864L0 39.2858C0.389817 41.2042 0.740652 42.9627 2.3389 44.6413C5.1066 47.5189 9.19968 47.5189 10.5251 47.5189C12.5911 47.5189 16.4113 47.3191 19.101 44.5214C19.3739 44.2416 19.6078 43.9619 19.8027 43.6821C18.2045 41.5239 17.2689 38.5264 17.2689 34.8095C17.2689 33.4506 17.3858 32.1317 17.6197 30.8928Z" fill="white"/>
<path d="M20.3484 27.0957L20.6213 24.418C19.9196 25.2173 19.2959 26.0966 18.8281 27.0957H20.3484Z" fill="white"/>
<path d="M17.6194 30.8945C17.3855 32.1335 17.2686 33.4124 17.2686 34.7713C17.2686 38.4882 18.2041 41.4857 19.8024 43.6439C20.9718 42.0452 21.6345 40.0069 21.6345 37.9686C21.6345 34.8512 20.0752 32.3333 17.6194 30.8945Z" fill="white"/>
<path d="M0.740234 19.3033V15.1068H3.1571V4.67549H0.740234V0.199219H13.6822V4.67549H11.2653V15.1068H13.6822V19.3033H0.740234Z" fill="white"/>
<path d="M25.4156 19.3036V15.1071H27.2867V10.7507C27.2867 9.43182 26.3902 8.83232 25.1817 8.83232C23.7004 8.83232 22.5699 9.95139 22.5699 11.4701V15.0671H24.519V19.2237H14.3838V15.1071H16.2159V8.83232H14.3838V4.67578H22.375V7.55338C22.492 7.43348 22.6479 7.27362 22.7259 7.15372C24.2072 5.43515 25.8444 4.83565 28.0664 4.83565C31.1459 4.83565 33.6797 6.11458 33.6797 9.63165V15.1471H35.317V19.3036H25.4156Z" fill="white"/>
<path d="M51.4555 10.8325L45.9981 11.432C45.9201 9.87329 45.6082 8.23466 43.7761 8.23466C41.4372 8.23466 41.2423 10.233 41.2423 12.1914V12.2313C41.2423 14.1497 41.4372 16.188 43.7761 16.188C45.0235 16.188 46.115 15.4686 46.115 13.9099H46.3099H51.5724L51.4555 14.3895C50.5589 18.9457 46.5438 19.6651 43.6592 19.6651C39.1373 19.6651 34.6934 17.387 34.6934 12.2313C34.6934 7.07562 39.1373 4.79752 43.6592 4.79752C43.6981 4.75755 50.7538 4.31792 51.4555 10.8325Z" fill="white"/>
<path d="M53.3663 19.345C54.6365 19.345 55.6662 18.2892 55.6662 16.9869C55.6662 15.6846 54.6365 14.6289 53.3663 14.6289C52.0961 14.6289 51.0664 15.6846 51.0664 16.9869C51.0664 18.2892 52.0961 19.345 53.3663 19.345Z" fill="white"/>
</g>
<defs>
<clipPath id="clip0_1094_7526">
<rect width="56" height="48" fill="white"/>
</clipPath>
</defs>
</svg>
